X:475
T: Bedenken gegen das Heiraten (185), S.404
N: T0363
O: Luxemburg
S: Singendes Volk, Esch-Alzette, 1937 posth.]
N: Straen, fff Witry, 10.1.1933
R: Hochzeits-, Ehestandslied]
M: 2/4
L: 1/16
K: F
F2 | A2A2A2GG | B4A2
c2 | A2F2G2G2 | F4z2
F2 | A2A2A2G2 | B4A2
c2 | A2F2G2G2 | F4z2
F2 | c2c2d2d2 | c4z2
F2 | c2c2d2d2 | c4z2
A2 | F2A2A2G2 | B4A2
A2 | F2A2A2G2 | B4A2
A2 | c2F2G2G2 | F4z2

@@@ Tune index: 8529
